X: 75
T: From Whence the Winds Blow
C: Teton Sioux band 1911-1914
N: Derived from sioux075.krn
O: South Dakota, U.S.A.
N: Teton Sioux Music by Frances Densmore, 1918
Z: transcribed to **kern format by Craig Sapp
L: 1/8
M: 2/4
Q: 1/4=58
K: Ab clef=bass
%%linebreak <none>
C C [I:setbarnb 1]| 
C2C2 ||  
[M:3/4]C2C2C C | 
C4C C ||  
[M:2/4]C2C2 ||  
[M:3/4]C2C2C C | 
C2B, B, B,/ B,/ B, | 
B,2A, A,F,2 ||  
[M:2/4]A, A, A, A, | 
F,2F,2 | 
F,2F, F, ||  
[M:3/4]F,4B, B, ||  
[M:2/4]B,2B,2 ||  
[M:3/4]B,2B,2B, B, | 
B,2A, A, A,/ A,/ A, | 
A,2F, F,F,2 ||  
[M:2/4]F, F, F, F, | 
F,2F,2 | 
F,2F, F, ||  
[M:3/4]F,4C, C, ||  
[M:2/4]C,2C,2 ||  
[M:3/4]C,2C,2C, C, | 
C,6 |]  



